X: 1
T: Mrs. Halpin's Favorite
M: 4/4
L: 1/8
R: reel
K: Gmaj
BGAG EGDG|EAAG (3ABA GA|BGAG EGDG|1 EG (3GGG EGGA:|2 EG (3GGG EGGF||
G2 (3Bcd eddg|edBG AGEF|G2 Bd eddg|edBG (3ABA GE|
G2 (3Bcd eddg|edBG AGEG|Bd ~d2 eg ~g2|agbg aged||
